dist/svgs/unicons/line/book-alt.svg

<svg xmlns="http://www.w3.org/2000/svg" viewBox="0 0 24 24"><path d="M18 2H8a4 4 0 00-4 4v12a4 4 0 004 4h10a2 2 0 002-2V4a2 2 0 00-2-2zM6 6a2 2 0 012-2h10v10H8a3.91 3.91 0 00-2 .56zm2 14a2 2 0 010-4h10v4zm2-12h4a1 1 0 000-2h-4a1 1 0 000 2z"/></svg>

<svg xmlns="http://www.w3.org/2000/svg" viewBox="0 0 24 24"><path d="M18,2H8A4,4,0,0,0,4,6V18a4,4,0,0,0,4,4H18a2,2,0,0,0,2-2V4A2,2,0,0,0,18,2ZM6,6A2,2,0,0,1,8,4H18V14H8a3.91,3.91,0,0,0-2,.56ZM8,20a2,2,0,0,1,0-4H18v4ZM10,8h4a1,1,0,0,0,0-2H10a1,1,0,0,0,0,2Z"/></svg>
